X: 30621
T: HIGHLAND MARCH
C: By. H. Thayer
%R: march
B: Elias Howe "The Musician's Companion" Part 3 1844 p.62 #1
S: http://imslp.org/wiki/The_Musician's_Companion_(Howe,_Elias)
S: https://archive.org/stream/firstthirdpartof03howe/#page/66/mode/1up
Z: 2015 John Chambers <jc:trillian.mit.edu>
M: C
L: 1/8
K: C
% - - - - - - - - - - - - - - - - - - - - - - - - -
CE |\
G2G>G ECEG | c2c>c c2(cd) | (.e>.c)(eg) a2(ge) | d2d>d d2(CE) |\
G2G>G ECEG | c2c>c c2(cd) | (.e>.c)(eg) (ag)(ed) | c2c>c c2 :|
|: (cd) |\
e2e>a (g<e) (3(dcA) | G2G>G G2(cd) | (.e>.c)(eg) a2(ge) | d2d>d d2(cd) |\
e2e>a (g<e) (3(dcA) | G2G>G G2(cd) | (.e>.c)(eg) (ag)(ed) | c2c>c c2 :|
% - - - - - - - - - - - - - - - - - - - - - - - - -
